icons/circle/48/mytourbook.svg

<svg xmlns="http://www.w3.org/2000/svg" xmlns:xlink="http://www.w3.org/1999/xlink" viewBox="0 0 48 48">
 <defs>
  <linearGradient id="linearGradient4150">
   <stop style="stop-color:#6394d6;stop-opacity:1"/>
   <stop offset="1" style="stop-color:#82a9de;stop-opacity:1"/>
  </linearGradient>
  <linearGradient id="linearGradient3764" x1="1" x2="47" gradientUnits="userSpaceOnUse" gradientTransform="matrix(0,-1,1,0,-1.5e-6,47.999998)">
   <stop style="stop-color:#e4e4e4;stop-opacity:1"/>
   <stop offset="1" style="stop-color:#eee;stop-opacity:1"/>
  </linearGradient>
  <linearGradient xlink:href="#linearGradient4150" id="linearGradient4156" y1="36" x2="0" y2="29" gradientUnits="userSpaceOnUse"/>
  <linearGradient xlink:href="#linearGradient4150" id="linearGradient4183" x1="26" y1="10" x2="37" y2="17" gradientUnits="userSpaceOnUse"/>
 </defs>
 <g>
  <path d="m 36.31 5 c 5.859 4.062 9.688 10.831 9.688 18.5 c 0 12.426 -10.07 22.5 -22.5 22.5 c -7.669 0 -14.438 -3.828 -18.5 -9.688 c 1.037 1.822 2.306 3.499 3.781 4.969 c 4.085 3.712 9.514 5.969 15.469 5.969 c 12.703 0 23 -10.298 23 -23 c 0 -5.954 -2.256 -11.384 -5.969 -15.469 c -1.469 -1.475 -3.147 -2.744 -4.969 -3.781 z m 4.969 3.781 c 3.854 4.113 6.219 9.637 6.219 15.719 c 0 12.703 -10.297 23 -23 23 c -6.081 0 -11.606 -2.364 -15.719 -6.219 c 4.16 4.144 9.883 6.719 16.219 6.719 c 12.703 0 23 -10.298 23 -23 c 0 -6.335 -2.575 -12.06 -6.719 -16.219 z" style="opacity:0.05"/>
  <path d="m 41.28 8.781 c 3.712 4.085 5.969 9.514 5.969 15.469 c 0 12.703 -10.297 23 -23 23 c -5.954 0 -11.384 -2.256 -15.469 -5.969 c 4.113 3.854 9.637 6.219 15.719 6.219 c 12.703 0 23 -10.298 23 -23 c 0 -6.081 -2.364 -11.606 -6.219 -15.719 z" style="opacity:0.1"/>
  <path d="m 31.25 2.375 c 8.615 3.154 14.75 11.417 14.75 21.13 c 0 12.426 -10.07 22.5 -22.5 22.5 c -9.708 0 -17.971 -6.135 -21.12 -14.75 a 23 23 0 0 0 44.875 -7 a 23 23 0 0 0 -16 -21.875 z" style="opacity:0.2"/>
 </g>
 <g>
  <path d="m 24 1 c 12.703 0 23 10.297 23 23 c 0 12.703 -10.297 23 -23 23 -12.703 0 -23 -10.297 -23 -23 0 -12.703 10.297 -23 23 -23 z" style="fill:url(#linearGradient3764);fill-opacity:1"/>
 </g>
 <g>
  <path d="m 40.03 7.531 c 3.712 4.084 5.969 9.514 5.969 15.469 0 12.703 -10.297 23 -23 23 c -5.954 0 -11.384 -2.256 -15.469 -5.969 4.178 4.291 10.01 6.969 16.469 6.969 c 12.703 0 23 -10.298 23 -23 0 -6.462 -2.677 -12.291 -6.969 -16.469 z" style="opacity:0.1"/>
 </g>
 <path d="m 31.502 11 a 6.498 4.5 0 0 0 -4.391 1.188 12.996 13 0 0 1 9.158 6.361 A 6.498 4.5 0 0 0 38 15.5 6.498 4.5 0 0 0 31.502 11 m -6.498 2 a 11.997 12 0 0 0 -11.997 12 11.997 12 0 0 0 0.599 3.723 C 12.809 30.06 10.32 36.13 13.81 37 l 5.04 0 c 0.45 -1.481 2.372 0 5.165 0 0.161 0 0.301 -0.014 0.457 -0.018 A 11.997 12 0 0 0 25 37 11.997 12 0 0 0 37 25 11.997 12 0 0 0 25 13 m 0 6 a 5.998 6 0 0 1 5.998 6 5.998 6 0 0 1 -5.998 6 5.998 6 0 0 1 -3.366 -1.035 c -0.021 -0.015 -0.043 -0.032 -0.064 -0.047 A 5.998 6 0 0 1 19.01 25 5.998 6 0 0 1 25 19" style="fill:#000;fill-opacity:0.098;stroke:none;fill-rule:evenodd"/>
 <g>
  <path d="M 24 12 A 12 12 0 0 0 12 24 12 12 0 0 0 24 36 12 12 0 0 0 36 24 12 12 0 0 0 24 12 m 0 6 a 6 6 0 0 1 6 6 6 6 0 0 1 -6 6 6 6 0 0 1 -6 -6 6 6 0 0 1 6 -6 z" style="fill:#e6722c;fill-opacity:1;stroke:none;fill-rule:evenodd"/>
  <path d="m 30.5 10 a 6.5 4.5 0 0 0 -4.393 1.188 13 13 0 0 1 9.16 6.361 6.5 4.5 0 0 0 1.732 -3.049 6.5 4.5 0 0 0 -6.5 -4.5 z" style="fill:url(#linearGradient4183);fill-opacity:1;stroke:none"/>
  <path d="m 24 36 c 2.85 0 5.606 -1.016 7.775 -2.863 -0.072 -0.152 -0.158 -0.302 -0.258 -0.451 -6.519 -0.024 -11.5 -3.867 -11.5 -3.867 0 0 -5.239 6.972 3.982 7.182 z" style="fill:#000;fill-opacity:0.098;stroke:none;fill-rule:evenodd"/>
  <path d="m 12.727 27.5 c 3.295 3.5 4.01 0.375 6.291 0.318 2.996 2.182 4.981 3.842 11.501 3.867 0.359 0.535 0.56 1.096 0.453 1.63 c -0.596 1.185 -3.296 2.685 -7.96 2.685 -2.794 0 -4.717 -1.481 -5.167 0 l -5.04 0 c -3.667 -0.909 -0.712 -7.632 -0.076 -8.5 z" style="fill:url(#linearGradient4156);fill-opacity:1;stroke:none"/>
 </g>
</svg>

<svg xmlns="http://www.w3.org/2000/svg" xmlns:xlink="http://www.w3.org/1999/xlink" viewBox="0 0 48 48">
  <defs>
    <linearGradient id="a">
      <stop stop-color="#6394d6"/>
      <stop offset="1" stop-color="#82a9de"/>
    </linearGradient>
    <linearGradient id="b" x1="1" x2="47" gradientUnits="userSpaceOnUse" gradientTransform="rotate(-90 24 24)">
      <stop stop-color="#e4e4e4"/>
      <stop offset="1" stop-color="#eee"/>
    </linearGradient>
    <linearGradient xlink:href="#a" id="d" y1="36" x2="0" y2="29" gradientUnits="userSpaceOnUse"/>
    <linearGradient xlink:href="#a" id="c" x1="26" y1="10" x2="37" y2="17" gradientUnits="userSpaceOnUse"/>
  </defs>
  <path d="M36.31 5c5.859 4.062 9.688 10.831 9.688 18.5 0 12.426-10.07 22.5-22.5 22.5-7.669 0-14.438-3.828-18.5-9.688a23.24 23.24 0 0 0 3.781 4.969 22.923 22.923 0 0 0 15.469 5.969c12.703 0 23-10.298 23-23a22.92 22.92 0 0 0-5.969-15.469A23.216 23.216 0 0 0 36.31 5zm4.969 3.781A22.911 22.911 0 0 1 47.498 24.5c0 12.703-10.297 23-23 23a22.909 22.909 0 0 1-15.719-6.219C12.939 45.425 18.662 48 24.998 48c12.703 0 23-10.298 23-23 0-6.335-2.575-12.06-6.719-16.219z" opacity=".05"/>
  <path d="M41.28 8.781a22.923 22.923 0 0 1 5.969 15.469c0 12.703-10.297 23-23 23A22.92 22.92 0 0 1 8.78 41.281 22.911 22.911 0 0 0 24.499 47.5c12.703 0 23-10.298 23-23A22.909 22.909 0 0 0 41.28 8.781z" opacity=".1"/>
  <path d="M31.25 2.375C39.865 5.529 46 13.792 46 23.505c0 12.426-10.07 22.5-22.5 22.5-9.708 0-17.971-6.135-21.12-14.75a23 23 0 0 0 44.875-7 23 23 0 0 0-16-21.875z" opacity=".2"/>
  <path d="M24 1c12.703 0 23 10.297 23 23S36.703 47 24 47 1 36.703 1 24 11.297 1 24 1z" fill="url(#b)"/>
  <path d="M40.03 7.531A22.922 22.922 0 0 1 45.999 23c0 12.703-10.297 23-23 23A22.92 22.92 0 0 1 7.53 40.031C11.708 44.322 17.54 47 23.999 47c12.703 0 23-10.298 23-23 0-6.462-2.677-12.291-6.969-16.469z" opacity=".1"/>
  <path d="M31.502 11a6.498 4.5 0 0 0-4.391 1.188 12.996 13 0 0 1 9.158 6.361A6.498 4.5 0 0 0 38 15.5a6.498 4.5 0 0 0-6.498-4.5m-6.498 2a11.997 12 0 0 0-11.997 12 11.997 12 0 0 0 .599 3.723c-.797 1.337-3.286 7.407.204 8.277h5.04c.45-1.481 2.372 0 5.165 0 .161 0 .301-.014.457-.018A11.997 12 0 0 0 25 37a11.997 12 0 0 0 12-12 11.997 12 0 0 0-12-12m0 6a5.998 6 0 0 1 5.998 6A5.998 6 0 0 1 25 31a5.998 6 0 0 1-3.366-1.035l-.064-.047A5.998 6 0 0 1 19.01 25 5.998 6 0 0 1 25 19" fill-opacity=".098" fill-rule="evenodd"/>
  <g>
    <path d="M24 12a12 12 0 0 0-12 12 12 12 0 0 0 12 12 12 12 0 0 0 12-12 12 12 0 0 0-12-12m0 6a6 6 0 0 1 6 6 6 6 0 0 1-6 6 6 6 0 0 1-6-6 6 6 0 0 1 6-6z" fill="#e6722c" fill-rule="evenodd"/>
    <path d="M30.5 10a6.5 4.5 0 0 0-4.393 1.188 13 13 0 0 1 9.16 6.361 6.5 4.5 0 0 0 1.732-3.049 6.5 4.5 0 0 0-6.5-4.5z" fill="url(#c)"/>
    <path d="M24 36c2.85 0 5.606-1.016 7.775-2.863a3.493 3.493 0 0 0-.258-.451c-6.519-.024-11.5-3.867-11.5-3.867s-5.239 6.972 3.982 7.182z" fill-opacity=".098" fill-rule="evenodd"/>
    <path d="M12.727 27.5c3.295 3.5 4.01.375 6.291.318 2.996 2.182 4.981 3.842 11.501 3.867.359.535.56 1.096.453 1.63C30.376 34.5 27.676 36 23.012 36c-2.794 0-4.717-1.481-5.167 0h-5.04c-3.667-.909-.712-7.632-.076-8.5z" fill="url(#d)"/>
  </g>
</svg>
